X: 32587
T: Planxty Kelly
R: jig
M: 6/8
K: Dmajor
D|:D2 D D2 E|F2 G A2 F|A2 B c2 d|e2 d (cB) A|f2 f e2 d|
d2 c B2 ^A|B2 c d2 B|A2 G F2 E|D2 d (de) c d2 z z2 D:|
|:D3 d3|D3 d2 d|f2 e e2 d|d2 c B2 ^A|
B2 c d2 B|A2 G F2 E|D2 d (de) c|d3 z2 z:|

